X: 4255
M: 6/8
L: 1/8
K: Ador
e |\
gag f2e | dBg dBG | AAA cde | dBG A2 :|
|: B |\
ccc g2c | ece dBG | ccc g2c | ece geg |\
aga g2e | dBg dBG | AAA cde | dBG A2 :|


